img/bookmark-fill.svg

<svg fill="none" height="24" viewBox="0 0 24 24" width="24" xmlns="http://www.w3.org/2000/svg"><path d="m4 5c0-.79565.31607-1.55871.87868-2.12132s1.32567-.87868 2.12132-.87868h10c.7956 0 1.5587.31607 2.1213.87868s.8787 1.32567.8787 2.12132v16.028c0 1.22-1.38 1.93-2.372 1.221l-5.628-4.02-5.628 4.02c-.993.71-2.372 0-2.372-1.22z" fill="#008699"/></svg>

<svg width="24" height="24" viewBox="0 0 24 24" fill="none" xmlns="http://www.w3.org/2000/svg">
<path d="M4 5C4 4.20435 4.31607 3.44129 4.87868 2.87868C5.44129 2.31607 6.20435 2 7 2H17C17.7956 2 18.5587 2.31607 19.1213 2.87868C19.6839 3.44129 20 4.20435 20 5V21.028C20 22.248 18.62 22.958 17.628 22.249L12 18.229L6.372 22.249C5.379 22.959 4 22.249 4 21.029V5Z" fill="#008699"/>
</svg>
